packages/icons/src/hourglass.svg

<svg viewBox="0 0 9 12" xmlns="http://www.w3.org/2000/svg"><path clip-rule="evenodd" d="m8.18875 1.30777c-.17304 2.32799-1.26719 3.11518-2.01119 3.6499-.47903.34416-.72911.54072-.72911.90911 0 .3684.24912.5652.72911.90936.77232.55487 1.91999 1.38095 2.02655 3.91706h.09024c.32017-.0019.58141.2558.58392.576v.1548c-.00251.3201-.26375.5778-.58392.5759h-7.709233c-.153975.0013-.302125-.0587-.411857-.1668-.1097314-.108-.17205536-.2552-.17326-.4091v-.1548c.00095106-.1542.0631634-.3016.172923-.4099.109759-.1082.258054-.1683.412194-.1671h.244318c.106559-2.53511 1.254235-3.36143 2.026545-3.91606.47808-.34416.72696-.54168.72696-.91008 0-.36839-.24912-.56519-.72912-.90935-.74471-.53496-1.83815-1.32191-2.011185-3.6499h-.258718c-.32017.00186-.58140761-.25583-.583917-.575996v-.154799c.00120464-.153975.0635286-.301164.17326-.409186.109732-.1080209.257882-.16802507.411857-.16681093h7.709233c.32017-.00186285.58141.25583193.58392.57599693v.155759c-.00251.320166-.26375.577856-.58392.575996zm-.52248 9.38443c-.09672-2.25743-1.03919-2.93591-1.80502-3.48598v-.00024c-.48912-.35112-.95088-.6828-.95088-1.3392 0-.65626.46181-.98794.95058-1.33897l.0003-.00022.00145-.00105c.73341-.52756 1.6316-1.17366 1.78821-3.21901h-6.26924c.15768 2.04647 1.0548 2.69206 1.78967 3.22006l.00059.00043c.4889.3512.95029.68263.95029 1.33876 0 .65627-.46181.98794-.95058 1.33898l-.0003.00022c-.76583.55007-1.70903 1.22855-1.80503 3.48622zm-.83111-7.58516-.00012-.00005.00012-.00019zm-.00012-.00005c-.75413-.27886-1.55241-.41926-2.35643-.41443-.7818-.00449-1.55836.12774-2.29462.39072.29288.48324.69428.89162 1.17239 1.19279.5064.36384 1.07999.77616 1.07999 1.59071v.01776h.15888v-.01776c0-.81453.5737-1.22684 1.0795-1.59035l.0005-.00036c.47032-.2966.86695-.6964 1.15979-1.16908zm-5.14305 7.39511c.006-.0821.01344-.1617.02184-.24.56746-1.04749 1.67823-1.68428 2.8689-1.64468 1.19068.03959 2.25669.74877 2.75331 1.83168.00058.0086.00134.0171.00209.0256.0008.009.00161.0181.00223.0274z" fill="#77788d" fill-rule="evenodd"/></svg>

<svg viewBox="0 0 9 12" xmlns="http://www.w3.org/2000/svg">
<path fill-rule="evenodd" clip-rule="evenodd" d="M8.18875 1.30777C8.01571 3.63576 6.92156 4.42295 6.17756 4.95767C5.69853 5.30183 5.44845 5.49839 5.44845 5.86678C5.44845 6.23518 5.69757 6.43198 6.17756 6.77614C6.94988 7.33101 8.09755 8.15709 8.20411 10.6932H8.29435C8.61452 10.6913 8.87576 10.949 8.87827 11.2692V11.424C8.87576 11.7441 8.61452 12.0018 8.29435 11.9999H0.585117C0.431142 12.0012 0.282992 11.9412 0.17326 11.8331C0.0635286 11.7251 0.00120464 11.5779 0 11.424V11.2692C0.000951058 11.115 0.0631634 10.9676 0.172923 10.8593C0.282682 10.7511 0.430977 10.691 0.585117 10.6922H0.829435C0.935994 8.15709 2.08367 7.33077 2.85598 6.77614C3.33406 6.43198 3.58294 6.23446 3.58294 5.86606C3.58294 5.49767 3.33382 5.30087 2.85382 4.95671C2.10911 4.42175 1.01567 3.6348 0.842635 1.30681H0.583917C0.263747 1.30867 0.00250939 1.05098 0 0.730814V0.576015C0.00120464 0.42204 0.0635286 0.274851 0.17326 0.166829C0.282992 0.0588081 0.431142 -0.00119607 0.585117 1.80729e-05H8.29435C8.61452 -0.00184478 8.87576 0.25585 8.87827 0.576015V0.731774C8.87576 1.05194 8.61452 1.30963 8.29435 1.30777H8.18875ZM7.66627 10.6922C7.56955 8.43477 6.62708 7.75629 5.86125 7.20622V7.20598C5.37213 6.85486 4.91037 6.52318 4.91037 5.86678C4.91037 5.21052 5.37218 4.87884 5.86095 4.52781L5.86125 4.52759L5.8627 4.52654C6.59611 3.99898 7.4943 3.35288 7.65091 1.30753H1.38167C1.53935 3.354 2.43647 3.99959 3.17134 4.52759L3.17193 4.52802C3.66083 4.87922 4.12222 5.21065 4.12222 5.86678C4.12222 6.52305 3.66041 6.85472 3.17164 7.20576L3.17134 7.20598C2.40551 7.75605 1.46231 8.43453 1.36631 10.6922H7.66627ZM6.83516 3.10704L6.83504 3.10699L6.83516 3.1068V3.10704ZM6.83504 3.10699C6.08091 2.82813 5.28263 2.68773 4.47861 2.69256C3.69681 2.68807 2.92025 2.8203 2.18399 3.08328C2.47687 3.56652 2.87827 3.9749 3.35638 4.27607C3.86278 4.63991 4.43637 5.05223 4.43637 5.86678V5.88454H4.59525V5.86678C4.59525 5.05225 5.16895 4.63994 5.67475 4.27643L5.67525 4.27607C6.14557 3.97947 6.5422 3.57967 6.83504 3.10699ZM1.69199 10.5021C1.69799 10.42 1.70543 10.3404 1.71383 10.2621C2.28129 9.21461 3.39206 8.57782 4.58273 8.61742C5.77341 8.65701 6.83942 9.36619 7.33604 10.4491C7.33662 10.4577 7.33738 10.4662 7.33813 10.4747C7.33893 10.4837 7.33974 10.4928 7.34036 10.5021H1.69199Z" fill="#77788D"/>
</svg>
